dist/svg/u1F39E.svg

<?xml version="1.0" encoding="UTF-8"?><svg id="a" xmlns="http://www.w3.org/2000/svg" viewBox="0 0 40 40"><g><path d="M33.76,2.5H6.363c-.852,0-1.542,.69-1.542,1.542v31.916c0,.852,.69,1.542,1.542,1.542h27.397c.852,0,1.542-.69,1.542-1.542V4.042c0-.852-.69-1.542-1.542-1.542ZM10.039,34.816c0,.313-.253,.566-.566,.566h-1.747c-.313,0-.566-.253-.566-.566v-1.748c0-.313,.253-.566,.566-.566h1.747c.313,0,.566,.253,.566,.566v1.748Zm0-5.563c0,.313-.253,.566-.566,.566h-1.747c-.313,0-.566-.253-.566-.566v-1.748c0-.313,.253-.566,.566-.566h1.747c.313,0,.566,.253,.566,.566v1.748Zm0-5.563c0,.313-.253,.566-.566,.566h-1.747c-.313,0-.566-.253-.566-.566v-1.748c0-.313,.253-.566,.566-.566h1.747c.313,0,.566,.253,.566,.566v1.748Zm0-5.563c0,.313-.253,.566-.566,.566h-1.747c-.313,0-.566-.253-.566-.566v-1.748c0-.313,.253-.566,.566-.566h1.747c.313,0,.566,.253,.566,.566v1.748Zm0-5.563c0,.313-.253,.566-.566,.566h-1.747c-.313,0-.566-.253-.566-.566v-1.748c0-.313,.253-.566,.566-.566h1.747c.313,0,.566,.253,.566,.566v1.748Zm0-5.563c0,.313-.253,.566-.566,.566h-1.747c-.313,0-.566-.253-.566-.566v-1.748c0-.313,.253-.566,.566-.566h1.747c.313,0,.566,.253,.566,.566v1.748Zm23.316,27.815c0,.313-.253,.566-.566,.566h-1.747c-.313,0-.566-.253-.566-.566v-1.748c0-.313,.253-.566,.566-.566h1.747c.313,0,.566,.253,.566,.566v1.748Zm0-5.563c0,.313-.253,.566-.566,.566h-1.747c-.313,0-.566-.253-.566-.566v-1.748c0-.313,.253-.566,.566-.566h1.747c.313,0,.566,.253,.566,.566v1.748Zm0-5.563c0,.313-.253,.566-.566,.566h-1.747c-.313,0-.566-.253-.566-.566v-1.748c0-.313,.253-.566,.566-.566h1.747c.313,0,.566,.253,.566,.566v1.748Zm0-5.563c0,.313-.253,.566-.566,.566h-1.747c-.313,0-.566-.253-.566-.566v-1.748c0-.313,.253-.566,.566-.566h1.747c.313,0,.566,.253,.566,.566v1.748Zm0-5.563c0,.313-.253,.566-.566,.566h-1.747c-.313,0-.566-.253-.566-.566v-1.748c0-.313,.253-.566,.566-.566h1.747c.313,0,.566,.253,.566,.566v1.748Zm0-5.563c0,.313-.253,.566-.566,.566h-1.747c-.313,0-.566-.253-.566-.566v-1.748c0-.313,.253-.566,.566-.566h1.747c.313,0,.566,.253,.566,.566v1.748Z" fill="#595959"/><rect x="12.758" y="4.687" width="14.857" height="14.006" rx="1.294" ry="1.294" fill="#d5d5d5"/><rect x="12.758" y="21.049" width="14.857" height="14.006" rx="1.294" ry="1.294" fill="#d5d5d5"/></g><rect x=".062" width="40" height="40" fill="none"/></svg>

<svg id="Layer_1" data-name="Layer 1" xmlns="http://www.w3.org/2000/svg" viewBox="0 0 40 40"><defs><style>.cls-1{fill:#595959;}.cls-2{fill:#d5d5d5;}.cls-3{fill:none;}</style></defs><path class="cls-1" d="M33.76,2.5H6.363A1.542,1.542,0,0,0,4.821,4.042V35.958A1.542,1.542,0,0,0,6.363,37.5h27.4A1.542,1.542,0,0,0,35.3,35.958V4.042A1.542,1.542,0,0,0,33.76,2.5ZM10.039,34.816a.567.567,0,0,1-.566.566H7.725a.567.567,0,0,1-.566-.566V33.068a.566.566,0,0,1,.566-.566H9.473a.566.566,0,0,1,.566.566Zm0-5.563a.567.567,0,0,1-.566.566H7.725a.567.567,0,0,1-.566-.566V27.505a.566.566,0,0,1,.566-.566H9.473a.566.566,0,0,1,.566.566Zm0-5.564a.567.567,0,0,1-.566.567H7.725a.567.567,0,0,1-.566-.567V21.942a.566.566,0,0,1,.566-.566H9.473a.566.566,0,0,1,.566.566Zm0-5.563a.566.566,0,0,1-.566.566H7.725a.566.566,0,0,1-.566-.566V16.379a.566.566,0,0,1,.566-.566H9.473a.566.566,0,0,1,.566.566Zm0-5.563a.566.566,0,0,1-.566.566H7.725a.566.566,0,0,1-.566-.566V10.816a.566.566,0,0,1,.566-.566H9.473a.566.566,0,0,1,.566.566Zm0-5.563a.566.566,0,0,1-.566.566H7.725A.566.566,0,0,1,7.159,7V5.253a.566.566,0,0,1,.566-.566H9.473a.566.566,0,0,1,.566.566ZM33.355,34.816a.567.567,0,0,1-.566.566H31.041a.566.566,0,0,1-.566-.566V33.068a.565.565,0,0,1,.566-.566h1.748a.566.566,0,0,1,.566.566Zm0-5.563a.567.567,0,0,1-.566.566H31.041a.566.566,0,0,1-.566-.566V27.505a.565.565,0,0,1,.566-.566h1.748a.566.566,0,0,1,.566.566Zm0-5.564a.567.567,0,0,1-.566.567H31.041a.566.566,0,0,1-.566-.567V21.942a.565.565,0,0,1,.566-.566h1.748a.566.566,0,0,1,.566.566Zm0-5.563a.566.566,0,0,1-.566.566H31.041a.565.565,0,0,1-.566-.566V16.379a.565.565,0,0,1,.566-.566h1.748a.566.566,0,0,1,.566.566Zm0-5.563a.566.566,0,0,1-.566.566H31.041a.565.565,0,0,1-.566-.566V10.816a.565.565,0,0,1,.566-.566h1.748a.566.566,0,0,1,.566.566Zm0-5.563a.566.566,0,0,1-.566.566H31.041A.565.565,0,0,1,30.475,7V5.253a.565.565,0,0,1,.566-.566h1.748a.566.566,0,0,1,.566.566Z"/><rect class="cls-2" x="12.758" y="4.687" width="14.857" height="14.006" rx="1.294"/><rect class="cls-2" x="12.758" y="21.049" width="14.857" height="14.006" rx="1.294"/><rect class="cls-3" x="0.062" width="40" height="40"/></svg>
